src/assets/images/activate.svg

<svg width="14" height="14" viewBox="0 0 14 14" fill="none" xmlns="http://www.w3.org/2000/svg">
<path d="M4.98844 6.61042L4.9883 6.61032C4.16917 5.99661 3.6376 5.01997 3.6376 3.91777C3.6376 2.10402 5.07432 0.625685 6.87096 0.557899L6.87141 0.554956H6.99998C8.85641 0.554956 10.3613 2.06095 10.3613 3.91726C10.3613 5.01894 9.82975 5.99541 9.01128 6.60916C9.01126 6.60917 9.01124 6.60919 9.01122 6.60921L8.8311 6.74442L9.04517 6.81481C9.04518 6.81482 9.04519 6.81482 9.0452 6.81482C9.86977 7.08578 10.6377 7.52127 11.3015 8.10107L11.3015 8.10111C11.4683 8.24689 11.4846 8.49091 11.3393 8.65726L11.339 8.65759C11.1928 8.82395 10.9489 8.83881 10.7831 8.69395L10.8767 8.58681L10.7831 8.69395C9.77092 7.80959 8.48183 7.30916 7.13928 7.27625H7.12746L7.12244 7.27643C7.08096 7.27795 7.03808 7.27953 6.99838 7.27953C6.95947 7.27953 6.9184 7.27802 6.87796 7.27653L6.87038 7.27625H6.85911C4.20631 7.34105 1.91033 9.24286 1.36801 11.8468L1.36796 11.8471C1.32757 12.0393 1.37682 12.2406 1.50067 12.3934L1.5188 12.4157C1.60005 12.5064 1.7639 12.6326 2.00101 12.6326H6.51279C6.73367 12.6326 6.9067 12.8061 6.9067 13.027C6.9067 13.2492 6.733 13.4209 6.51279 13.4209H2.00101C1.56642 13.4209 1.16332 13.2288 0.889327 12.892L0.889302 12.892C0.613528 12.5528 0.507874 12.1163 0.597436 11.6872L4.98844 6.61042ZM4.98844 6.61042L5.16885 6.74525M4.98844 6.61042L5.16885 6.74525M10.6969 12.9018L10.7105 12.9154L10.7147 12.9196L10.8019 13.0068C10.8005 13.008 10.7989 13.0093 10.7971 13.0107C10.7941 13.0131 10.7854 13.0199 10.7729 13.0263C10.7662 13.0295 10.7492 13.036 10.7387 13.0389C10.7222 13.0418 10.6806 13.0409 10.6563 13.0349C10.6421 13.0283 10.624 13.015 10.6075 13.0001C10.6386 12.9701 10.6679 12.938 10.6952 12.904L10.6969 12.9018ZM10.6969 12.9018L10.71 12.9116L10.7445 12.9375L10.7445 12.9375L10.8169 12.9918L10.8159 12.9931L10.8178 12.9909L10.8196 12.9889C10.8199 12.9886 10.8202 12.9882 10.8205 12.9878L10.6993 12.8991C10.6991 12.8994 10.6988 12.8998 10.6985 12.9001L10.6969 12.9018ZM5.16885 6.74525L4.95422 6.81591C4.95422 6.81591 4.95422 6.81591 4.95422 6.81591C4.19092 7.06717 3.47392 7.45838 2.84687 7.97401C1.69729 8.91932 0.899155 10.2389 0.59745 11.6872L5.16885 6.74525ZM4.42376 4.03523V3.91725C4.42376 2.50179 5.5796 1.34523 6.9947 1.34327L6.9947 1.34329H6.99881C8.41557 1.34329 9.57335 2.5001 9.57335 3.91727C9.57335 5.2906 8.48741 6.4205 7.12966 6.48821L7.12964 6.48794L7.12056 6.48894L7.11906 6.48911C7.07768 6.48803 7.03776 6.48748 6.99932 6.48748C6.9736 6.48748 6.94583 6.48798 6.91902 6.48847C6.90572 6.48871 6.89265 6.48895 6.88018 6.48912H6.87966L6.87807 6.48894L6.8781 6.48867L6.86894 6.48821C5.60286 6.42537 4.60496 5.42448 4.47602 4.16989L4.46218 4.03523H4.42376ZM13.057 8.81973L13.049 8.81168L12.9732 8.82387C12.8717 8.84017 12.781 8.89585 12.7176 8.98398L12.7175 8.98412L10.1837 12.5199C10.0909 12.6244 9.97132 12.6515 9.90539 12.6559L9.90482 12.6559C9.83814 12.6606 9.71301 12.6487 9.60694 12.5546L9.60672 12.5543L9.59842 12.5462L7.96615 10.9538C7.80784 10.799 7.56305 10.8035 7.40896 10.9611L7.40895 10.9611C7.25466 11.1189 7.25773 11.3629 7.41486 11.5175L7.41527 11.5179L9.05047 13.1136L9.05046 13.1136L9.05179 13.1148C9.27464 13.3271 9.5732 13.445 9.8793 13.445H9.88291C9.90315 13.445 9.92661 13.445 9.94875 13.4436V13.4437L9.95862 13.443C10.2896 13.4212 10.6004 13.2595 10.8092 13.0015L10.8101 13.0007L10.8149 12.9947L10.82 12.9884L10.8205 12.9878L10.8207 12.9879L10.8223 12.9858L10.8224 12.9858L10.8243 12.9831L13.3589 9.44383C13.359 9.4438 13.359 9.44378 13.359 9.44375C13.4881 9.26358 13.4461 9.02238 13.2683 8.89375C13.2028 8.84626 13.1292 8.82316 13.057 8.81973Z" fill="#545F7D" stroke="#545F7D" stroke-width="0.3"/>
</svg>

<svg xmlns="http://www.w3.org/2000/svg" width="14" height="14" fill="none"><path fill="#545F7D" stroke="#545F7D" stroke-width=".3" d="M4.988 6.61A3.363 3.363 0 0 1 6.871.558V.555H7a3.362 3.362 0 0 1 2.011 6.054l-.18.135.214.07a6.528 6.528 0 0 1 2.257 1.287.39.39 0 0 1 .037.556.39.39 0 0 1-.556.037l.094-.107-.094.107A5.75 5.75 0 0 0 7.14 7.276h-.017a2.609 2.609 0 0 1-.124.004l-.12-.003H6.86c-2.654.064-4.95 1.966-5.492 4.57a.655.655 0 0 0 .133.546l.018.023a.65.65 0 0 0 .482.217h4.512a.39.39 0 0 1 .394.394.39.39 0 0 1-.394.394H2c-.435 0-.838-.192-1.112-.529a1.432 1.432 0 0 1-.292-1.205L4.988 6.61Zm0 0 .18.135m-.18-.135.18.135m5.529 6.157.014.013.004.005.087.087a.144.144 0 0 1-.063.032.267.267 0 0 1-.083-.004.22.22 0 0 1-.049-.035c.032-.03.06-.062.088-.096l.002-.002Zm0 0 .013.01.034.025.073.055-.001.001.002-.002.002-.002v-.001l-.12-.089-.002.001-.001.002ZM5.169 6.745l-.215.07a6.538 6.538 0 0 0-4.357 4.872L5.17 6.745Zm-.745-2.71v-.118a2.58 2.58 0 0 1 2.57-2.574H7a2.58 2.58 0 0 1 2.574 2.574A2.58 2.58 0 0 1 7.13 6.488h-.01v.001a4.595 4.595 0 0 0-.201 0h-.051c-1.265-.064-2.263-1.065-2.392-2.32l-.014-.134h-.038Zm8.633 4.785-.008-.008-.076.012a.389.389 0 0 0-.255.16l-2.534 3.536a.413.413 0 0 1-.577.035l-.009-.009-1.632-1.592a.39.39 0 0 0-.557.007.39.39 0 0 0 .006.556l1.635 1.597h.002a1.2 1.2 0 0 0 .827.331h.004l.066-.001.01-.001c.33-.022.641-.184.85-.441L10.81 13l.005-.006.005-.007.002-.002.002-.003 2.535-3.54a.391.391 0 0 0-.09-.55.39.39 0 0 0-.212-.073Z"/></svg>
